X: 7
T: Emi's Jig
C: Aron Garceau
R: jig
Z: 2019 John Chambers <jc:trillian.mit.edu>
M: 6/8
L: 1/8
K: D
"A"|:\
"D"fga "G"g2f | "A7"efg "D"f2e | "D"cdf "A"edc | "G"dcB "A"AAA |\
"D"fga "G"g2f | "A7"efg "D"f2e | "A7"cde   ABc | "D"dfe    d3 :|
"B"|:\
"D"fdd     dfd | "G"gdd    dgd | "D"add    dad | "A7"aaa afg |\
"D"agf "Em"gfe | "D"fed "A"edc | "G"dcB "A"ABc |  "D"dfe d3 :|

%%sep 1 1 500

